img/logo.svg

<svg width="102" height="63" viewBox="0 0 102 63" fill="none" xmlns="http://www.w3.org/2000/svg">
<path d="M6.71875 26.2344H16.6719V30H2.03125V7.25H6.71875V26.2344ZM24.0625 21.9844V30H19.375V7.25H28.25C29.9583 7.25 31.4583 7.5625 32.75 8.1875C34.0521 8.8125 35.0521 9.70312 35.75 10.8594C36.4479 12.0052 36.7969 13.3125 36.7969 14.7812C36.7969 17.0104 36.0312 18.7708 34.5 20.0625C32.9792 21.3438 30.8698 21.9844 28.1719 21.9844H24.0625ZM24.0625 18.1875H28.25C29.4896 18.1875 30.4323 17.8958 31.0781 17.3125C31.7344 16.7292 32.0625 15.8958 32.0625 14.8125C32.0625 13.6979 31.7344 12.7969 31.0781 12.1094C30.4219 11.4219 29.5156 11.0677 28.3594 11.0469H24.0625V18.1875ZM60.8438 25.3125H52.625L51.0625 30H46.0781L54.5469 7.25H58.8906L67.4062 30H62.4219L60.8438 25.3125ZM53.8906 21.5156H59.5781L56.7188 13L53.8906 21.5156ZM78.7344 17.3281C78.1198 17.2448 77.5781 17.2031 77.1094 17.2031C75.401 17.2031 74.2812 17.7812 73.75 18.9375V30H69.2344V13.0938H73.5L73.625 15.1094C74.5312 13.5573 75.7865 12.7812 77.3906 12.7812C77.8906 12.7812 78.3594 12.849 78.7969 12.9844L78.7344 17.3281ZM87.1094 8.9375V13.0938H90V16.4062H87.1094V24.8438C87.1094 25.4688 87.2292 25.9167 87.4688 26.1875C87.7083 26.4583 88.1667 26.5938 88.8438 26.5938C89.3438 26.5938 89.7865 26.5573 90.1719 26.4844V29.9062C89.2865 30.1771 88.375 30.3125 87.4375 30.3125C84.2708 30.3125 82.6562 28.7135 82.5938 25.5156V16.4062H80.125V13.0938H82.5938V8.9375H87.1094Z" fill="url(#paint0_linear)"/>
<path d="M4.634 39.2C5.59533 39.2 6.384 39.5173 7 40.152C7.616 40.7867 7.924 41.5987 7.924 42.588C7.924 43.568 7.616 44.3753 7 45.01C6.384 45.6447 5.59533 45.962 4.634 45.962H2.394V49H1.12V39.2H4.634ZM4.564 44.814C5.17067 44.814 5.67 44.604 6.062 44.184C6.454 43.764 6.65 43.232 6.65 42.588C6.65 41.9347 6.454 41.398 6.062 40.978C5.67 40.558 5.17067 40.348 4.564 40.348H2.394V44.814H4.564ZM12.0131 49.168C10.9864 49.168 10.1698 48.846 9.56309 48.202C8.95643 47.5487 8.65309 46.7367 8.65309 45.766C8.65309 44.7953 8.95643 43.988 9.56309 43.344C10.1698 42.7 10.9864 42.378 12.0131 42.378C13.0304 42.378 13.8424 42.7047 14.4491 43.358C15.0651 44.002 15.3731 44.8047 15.3731 45.766C15.3731 46.7367 15.0651 47.5487 14.4491 48.202C13.8424 48.846 13.0304 49.168 12.0131 49.168ZM10.4311 47.432C10.8231 47.8613 11.3504 48.076 12.0131 48.076C12.6758 48.076 13.1984 47.8613 13.5811 47.432C13.9638 46.9933 14.1551 46.438 14.1551 45.766C14.1551 45.1033 13.9638 44.5573 13.5811 44.128C13.1984 43.6893 12.6758 43.47 12.0131 43.47C11.3504 43.47 10.8231 43.6893 10.4311 44.128C10.0484 44.5573 9.85709 45.108 9.85709 45.78C9.85709 46.4427 10.0484 46.9933 10.4311 47.432ZM19.7204 49.168C18.7404 49.168 17.9611 48.86 17.3824 48.244C16.8038 47.6187 16.5144 46.7973 16.5144 45.78C16.5144 44.7627 16.8038 43.946 17.3824 43.33C17.9611 42.7047 18.7404 42.392 19.7204 42.392C20.5884 42.392 21.2884 42.6113 21.8204 43.05C22.3524 43.4793 22.6558 44.058 22.7304 44.786H21.5124C21.3444 43.918 20.7471 43.484 19.7204 43.484C19.0951 43.484 18.6051 43.6893 18.2504 44.1C17.8958 44.5013 17.7184 45.0613 17.7184 45.78C17.7184 46.4987 17.8958 47.0633 18.2504 47.474C18.6051 47.8753 19.0951 48.076 19.7204 48.076C20.7378 48.076 21.3351 47.656 21.5124 46.816H22.7304C22.6558 47.5347 22.3524 48.1087 21.8204 48.538C21.2884 48.958 20.5884 49.168 19.7204 49.168ZM30.0599 49H28.8419V43.568H25.5239V49H24.3059V42.546H30.0599V49ZM36.6895 44.492L33.3715 48.482V49H32.1535V42.546H33.3715V47.11L36.6895 43.092V42.546H37.9075V49H36.6895V44.492ZM42.6892 49.168C41.7092 49.168 40.9298 48.86 40.3512 48.244C39.7725 47.6187 39.4832 46.7973 39.4832 45.78C39.4832 44.7627 39.7725 43.946 40.3512 43.33C40.9298 42.7047 41.7092 42.392 42.6892 42.392C43.5572 42.392 44.2572 42.6113 44.7892 43.05C45.3212 43.4793 45.6245 44.058 45.6992 44.786H44.4812C44.3132 43.918 43.7158 43.484 42.6892 43.484C42.0638 43.484 41.5738 43.6893 41.2192 44.1C40.8645 44.5013 40.6872 45.0613 40.6872 45.78C40.6872 46.4987 40.8645 47.0633 41.2192 47.474C41.5738 47.8753 42.0638 48.076 42.6892 48.076C43.7065 48.076 44.3038 47.656 44.4812 46.816H45.6992C45.6245 47.5347 45.3212 48.1087 44.7892 48.538C44.2572 48.958 43.5572 49.168 42.6892 49.168ZM47.2746 42.546H48.4926V44.8H50.1726C50.8539 44.8 51.3999 45.0007 51.8106 45.402C52.2213 45.8033 52.4266 46.3027 52.4266 46.9C52.4266 47.4787 52.2073 47.9733 51.7686 48.384C51.3393 48.7947 50.8026 49 50.1586 49H47.2746V42.546ZM48.4926 45.766V48.02H50.0186C50.3733 48.02 50.6533 47.9173 50.8586 47.712C51.0639 47.4973 51.1666 47.2267 51.1666 46.9C51.1666 46.564 51.0639 46.2933 50.8586 46.088C50.6626 45.8733 50.3919 45.766 50.0466 45.766H48.4926ZM57.4191 42.546H60.4571C61.1851 42.546 61.7031 42.714 62.0111 43.05C62.3191 43.386 62.4731 43.778 62.4731 44.226C62.4731 44.5993 62.3331 44.9213 62.0531 45.192C61.7825 45.4627 61.4418 45.6213 61.0311 45.668C61.4605 45.6867 61.8245 45.8407 62.1231 46.13C62.4311 46.4193 62.5851 46.788 62.5851 47.236C62.5851 47.684 62.4078 48.09 62.0531 48.454C61.7078 48.818 61.1525 49 60.3871 49H57.4191V42.546ZM60.3731 45.276C60.6251 45.276 60.8351 45.1873 61.0031 45.01C61.1711 44.8233 61.2551 44.604 61.2551 44.352C61.2551 44.0907 61.1711 43.8713 61.0031 43.694C60.8351 43.5073 60.6205 43.414 60.3591 43.414H58.6091V45.276H60.3731ZM58.6091 46.144V48.132H60.4151C60.6765 48.132 60.9005 48.0387 61.0871 47.852C61.2738 47.656 61.3671 47.4227 61.3671 47.152C61.3671 46.8813 61.2738 46.648 61.0871 46.452C60.9005 46.2467 60.6765 46.144 60.4151 46.144H58.6091ZM70.0084 45.402C70.0084 45.5793 69.9944 45.822 69.9664 46.13H64.9684C64.9778 46.746 65.1644 47.2313 65.5284 47.586C65.8924 47.9313 66.3824 48.104 66.9984 48.104C67.8571 48.104 68.4264 47.7867 68.7064 47.152H69.9244C69.8124 47.7493 69.4858 48.2347 68.9444 48.608C68.4031 48.9813 67.7544 49.168 66.9984 49.168C66.0091 49.168 65.2204 48.8647 64.6324 48.258C64.0538 47.642 63.7644 46.8113 63.7644 45.766C63.7644 44.7393 64.0538 43.918 64.6324 43.302C65.2111 42.686 65.9811 42.378 66.9424 42.378C67.8571 42.378 68.5944 42.658 69.1544 43.218C69.7238 43.778 70.0084 44.506 70.0084 45.402ZM64.9684 45.192H68.8044C68.8044 44.6227 68.6364 44.1747 68.3004 43.848C67.9738 43.5213 67.5164 43.358 66.9284 43.358C66.3498 43.358 65.8831 43.526 65.5284 43.862C65.1831 44.198 64.9964 44.6413 64.9684 45.192ZM80.4732 47.852H81.1172V50.68H79.8992V49H71.5832V42.546H72.8012V47.978H75.4192V42.546H76.6372V47.978H79.2692V42.546H80.4732V47.852ZM88.3014 45.402C88.3014 45.5793 88.2874 45.822 88.2594 46.13H83.2614C83.2707 46.746 83.4574 47.2313 83.8214 47.586C84.1854 47.9313 84.6754 48.104 85.2914 48.104C86.1501 48.104 86.7194 47.7867 86.9994 47.152H88.2174C88.1054 47.7493 87.7787 48.2347 87.2374 48.608C86.6961 48.9813 86.0474 49.168 85.2914 49.168C84.3021 49.168 83.5134 48.8647 82.9254 48.258C82.3467 47.642 82.0574 46.8113 82.0574 45.766C82.0574 44.7393 82.3467 43.918 82.9254 43.302C83.5041 42.686 84.2741 42.378 85.2354 42.378C86.1501 42.378 86.8874 42.658 87.4474 43.218C88.0167 43.778 88.3014 44.506 88.3014 45.402ZM83.2614 45.192H87.0974C87.0974 44.6227 86.9294 44.1747 86.5934 43.848C86.2667 43.5213 85.8094 43.358 85.2214 43.358C84.6427 43.358 84.1761 43.526 83.8214 43.862C83.4761 44.198 83.2894 44.6413 83.2614 45.192ZM94.4262 41.594C93.9875 41.9487 93.4182 42.126 92.7182 42.126C92.0182 42.126 91.4442 41.9487 90.9962 41.594C90.5575 41.23 90.3195 40.74 90.2822 40.124H91.3182C91.3462 40.4787 91.4862 40.7493 91.7382 40.936C91.9995 41.1227 92.3262 41.216 92.7182 41.216C93.1195 41.216 93.4462 41.1227 93.6982 40.936C93.9595 40.7493 94.1042 40.4787 94.1322 40.124H95.1682C95.1215 40.74 94.8742 41.23 94.4262 41.594ZM94.4122 44.492L91.0942 48.482V49H89.8762V42.546H91.0942V47.11L94.4122 43.092V42.546H95.6302V49H94.4122V44.492ZM5.586 56.492L2.268 60.482V61H1.05V54.546H2.268V59.11L5.586 55.092V54.546H6.804V61H5.586V56.492ZM15.2807 61.168C14.254 61.168 13.4373 60.846 12.8307 60.202C12.224 59.5487 11.9207 58.7367 11.9207 57.766C11.9207 56.7953 12.224 55.988 12.8307 55.344C13.4373 54.7 14.254 54.378 15.2807 54.378C16.298 54.378 17.11 54.7047 17.7167 55.358C18.3327 56.002 18.6407 56.8047 18.6407 57.766C18.6407 58.7367 18.3327 59.5487 17.7167 60.202C17.11 60.846 16.298 61.168 15.2807 61.168ZM13.6987 59.432C14.0907 59.8613 14.618 60.076 15.2807 60.076C15.9433 60.076 16.466 59.8613 16.8487 59.432C17.2313 58.9933 17.4227 58.438 17.4227 57.766C17.4227 57.1033 17.2313 56.5573 16.8487 56.128C16.466 55.6893 15.9433 55.47 15.2807 55.47C14.618 55.47 14.0907 55.6893 13.6987 56.128C13.316 56.5573 13.1247 57.108 13.1247 57.78C13.1247 58.4427 13.316 58.9933 13.6987 59.432ZM25.5569 59.852H26.2009V62.68H24.9829V61H20.5169V62.68H19.2429V59.852H19.8869C20.2882 59.628 20.4889 59.0773 20.4889 58.2V54.546H25.5569V59.852ZM21.2309 59.978H24.3389V55.568H21.7069V58.144C21.7069 58.8813 21.5482 59.4927 21.2309 59.978ZM33.3678 57.402C33.3678 57.5793 33.3538 57.822 33.3258 58.13H28.3278C28.3371 58.746 28.5238 59.2313 28.8878 59.586C29.2518 59.9313 29.7418 60.104 30.3578 60.104C31.2165 60.104 31.7858 59.7867 32.0658 59.152H33.2838C33.1718 59.7493 32.8451 60.2347 32.3038 60.608C31.7625 60.9813 31.1138 61.168 30.3578 61.168C29.3685 61.168 28.5798 60.8647 27.9918 60.258C27.4131 59.642 27.1238 58.8113 27.1238 57.766C27.1238 56.7393 27.4131 55.918 27.9918 55.302C28.5705 54.686 29.3405 54.378 30.3018 54.378C31.2165 54.378 31.9538 54.658 32.5138 55.218C33.0831 55.778 33.3678 56.506 33.3678 57.402ZM28.3278 57.192H32.1638C32.1638 56.6227 31.9958 56.1747 31.6598 55.848C31.3331 55.5213 30.8758 55.358 30.2878 55.358C29.7091 55.358 29.2425 55.526 28.8878 55.862C28.5425 56.198 28.3558 56.6413 28.3278 57.192ZM43.7308 61H42.2048L39.4608 57.962V61H38.2428V57.962L35.4988 61H33.9728L37.0248 57.654H36.9408C36.7261 57.654 36.5394 57.6073 36.3808 57.514C36.2314 57.4113 36.0634 57.2153 35.8768 56.926L35.2888 56.072C35.1488 55.8853 35.0228 55.7593 34.9108 55.694C34.8081 55.6193 34.6728 55.582 34.5048 55.582H34.2248V54.476H34.7428C35.0601 54.476 35.3121 54.5367 35.4988 54.658C35.6948 54.7793 35.9001 54.9987 36.1148 55.316L37.1647 56.786C37.4168 57.1593 37.6968 57.346 38.0048 57.346H38.2428V54.546H39.4608V57.346H39.6988C40.0068 57.346 40.2868 57.1593 40.5387 56.786L41.5888 55.316C41.8034 54.9987 42.0041 54.7793 42.1908 54.658C42.3868 54.5367 42.6434 54.476 42.9608 54.476H43.4788V55.582H43.1988C43.0308 55.582 42.8908 55.6193 42.7788 55.694C42.6761 55.7593 42.5548 55.8853 42.4148 56.072L41.8268 56.926C41.6401 57.2153 41.4674 57.4113 41.3088 57.514C41.1594 57.6073 40.9774 57.654 40.7628 57.654H40.6788L43.7308 61ZM50.8225 59.852H51.4665V62.68H50.2485V61H45.7825V62.68H44.5085V59.852H45.1525C45.5538 59.628 45.7545 59.0773 45.7545 58.2V54.546H50.8225V59.852ZM46.4965 59.978H49.6045V55.568H46.9725V58.144C46.9725 58.8813 46.8138 59.4927 46.4965 59.978ZM53.1125 54.546H54.3305V56.8H56.0105C56.6918 56.8 57.2378 57.0007 57.6485 57.402C58.0592 57.8033 58.2645 58.3027 58.2645 58.9C58.2645 59.4787 58.0452 59.9733 57.6065 60.384C57.1772 60.7947 56.6405 61 55.9965 61H53.1125V54.546ZM59.1605 61V54.546H60.3785V61H59.1605ZM54.3305 57.766V60.02H55.8565C56.2112 60.02 56.4912 59.9173 56.6965 59.712C56.9018 59.4973 57.0045 59.2267 57.0045 58.9C57.0045 58.564 56.9018 58.2933 56.6965 58.088C56.5005 57.8733 56.2298 57.766 55.8845 57.766H54.3305Z" fill="#27262B"/>
<defs>
<linearGradient id="paint0_linear" x1="1.37843e-07" y1="19.2043" x2="94.5194" y2="16.1644" gradientUnits="userSpaceOnUse">
<stop stop-color="#FCAF45"/>
<stop offset="0.197917" stop-color="#F77737"/>
<stop offset="0.395833" stop-color="#FD1D1D"/>
<stop offset="0.59375" stop-color="#C13584"/>
<stop offset="0.796875" stop-color="#833AB4"/>
<stop offset="1" stop-color="#405DE6"/>
</linearGradient>
</defs>
</svg>

<svg width="102" height="63" viewBox="0 0 102 63" fill="none" xmlns="http://www.w3.org/2000/svg"><path d="M6.719 26.234h9.953V30H2.032V7.25h4.687v18.984zm17.343-4.25V30h-4.687V7.25h8.875c1.708 0 3.208.313 4.5.938 1.302.624 2.302 1.515 3 2.671.698 1.146 1.047 2.454 1.047 3.922 0 2.23-.766 3.99-2.297 5.281-1.52 1.282-3.63 1.922-6.328 1.922h-4.11zm0-3.797h4.188c1.24 0 2.182-.291 2.828-.875.656-.583.985-1.416.985-2.5 0-1.114-.329-2.015-.985-2.703-.656-.687-1.562-1.041-2.719-1.062h-4.297v7.14zm36.782 7.125h-8.219L51.062 30h-4.984l8.469-22.75h4.344L67.406 30h-4.984l-1.578-4.688zm-6.953-3.796h5.687L56.718 13l-2.827 8.516zm24.843-4.188a12.274 12.274 0 00-1.625-.125c-1.708 0-2.828.578-3.359 1.735V30h-4.516V13.094H73.5l.125 2.015c.906-1.552 2.162-2.328 3.766-2.328.5 0 .968.068 1.406.203l-.063 4.344zm8.375-8.39v4.156H90v3.312h-2.89v8.438c0 .625.12 1.073.359 1.343.24.271.698.407 1.375.407.5 0 .943-.037 1.328-.11v3.422a9.294 9.294 0 01-2.734.407c-3.167 0-4.782-1.6-4.844-4.797v-9.11h-2.469v-3.312h2.469V8.938h4.515z" fill="url(#paint0_linear)"/><path d="M4.634 39.2c.961 0 1.75.317 2.366.952.616.635.924 1.447.924 2.436 0 .98-.308 1.787-.924 2.422-.616.635-1.405.952-2.366.952h-2.24V49H1.12v-9.8h3.514zm-.07 5.614c.607 0 1.106-.21 1.498-.63.392-.42.588-.952.588-1.596 0-.653-.196-1.19-.588-1.61-.392-.42-.891-.63-1.498-.63h-2.17v4.466h2.17zm7.45 4.354c-1.028 0-1.844-.322-2.45-.966-.608-.653-.91-1.465-.91-2.436 0-.97.302-1.778.91-2.422.606-.644 1.422-.966 2.45-.966 1.016 0 1.828.327 2.435.98.616.644.924 1.447.924 2.408 0 .97-.308 1.783-.924 2.436-.607.644-1.419.966-2.436.966zm-1.583-1.736c.392.43.92.644 1.582.644.663 0 1.185-.215 1.568-.644.383-.439.574-.994.574-1.666 0-.663-.191-1.209-.574-1.638-.383-.439-.905-.658-1.568-.658s-1.19.22-1.582.658c-.383.43-.574.98-.574 1.652 0 .663.191 1.213.574 1.652zm9.29 1.736c-.98 0-1.76-.308-2.339-.924-.578-.625-.868-1.447-.868-2.464s.29-1.834.868-2.45c.58-.625 1.358-.938 2.338-.938.868 0 1.568.22 2.1.658.532.43.836 1.008.91 1.736h-1.218c-.168-.868-.765-1.302-1.792-1.302-.625 0-1.115.205-1.47.616-.354.401-.532.961-.532 1.68s.178 1.283.532 1.694c.355.401.845.602 1.47.602 1.018 0 1.615-.42 1.792-1.26h1.218c-.074.719-.378 1.293-.91 1.722-.532.42-1.232.63-2.1.63zM30.06 49h-1.218v-5.432h-3.318V49h-1.218v-6.454h5.754V49zm6.63-4.508l-3.319 3.99V49h-1.218v-6.454h1.218v4.564l3.319-4.018v-.546h1.218V49H36.69v-4.508zm6 4.676c-.98 0-1.76-.308-2.339-.924-.578-.625-.868-1.447-.868-2.464s.29-1.834.868-2.45c.579-.625 1.358-.938 2.338-.938.868 0 1.568.22 2.1.658.532.43.835 1.008.91 1.736h-1.218c-.168-.868-.765-1.302-1.792-1.302-.625 0-1.115.205-1.47.616-.355.401-.532.961-.532 1.68s.178 1.283.532 1.694c.355.401.845.602 1.47.602 1.017 0 1.615-.42 1.792-1.26H45.7c-.075.719-.378 1.293-.91 1.722-.532.42-1.232.63-2.1.63zm4.585-6.622h1.218V44.8h1.68c.68 0 1.227.2 1.638.602.41.401.616.9.616 1.498 0 .579-.22 1.073-.658 1.484-.43.41-.966.616-1.61.616h-2.884v-6.454zm1.218 3.22v2.254h1.526c.354 0 .634-.103.84-.308a1.13 1.13 0 00.308-.812c0-.336-.103-.607-.308-.812-.196-.215-.467-.322-.812-.322h-1.554zm8.926-3.22h3.038c.728 0 1.246.168 1.554.504.308.336.462.728.462 1.176 0 .373-.14.695-.42.966-.27.27-.611.43-1.022.476.43.019.794.173 1.092.462.308.29.462.658.462 1.106 0 .448-.177.854-.532 1.218-.345.364-.9.546-1.666.546H57.42v-6.454zm2.954 2.73a.832.832 0 00.63-.266.952.952 0 00.252-.658.92.92 0 00-.252-.658.828.828 0 00-.644-.28h-1.75v1.862h1.764zm-1.764.868v1.988h1.806a.916.916 0 00.672-.28.98.98 0 00.28-.7.98.98 0 00-.28-.7.877.877 0 00-.672-.308H58.61zm11.4-.742c0 .177-.015.42-.043.728h-4.998c.01.616.196 1.101.56 1.456.364.345.854.518 1.47.518.86 0 1.428-.317 1.708-.952h1.218c-.112.597-.438 1.083-.98 1.456-.54.373-1.19.56-1.946.56-.989 0-1.778-.303-2.366-.91-.578-.616-.868-1.447-.868-2.492 0-1.027.29-1.848.868-2.464.58-.616 1.35-.924 2.31-.924.915 0 1.652.28 2.212.84.57.56.854 1.288.854 2.184zm-5.04-.21h3.835c0-.57-.168-1.017-.504-1.344-.326-.327-.784-.49-1.372-.49-.578 0-1.045.168-1.4.504-.345.336-.532.78-.56 1.33zm15.504 2.66h.644v2.828H79.9V49h-8.316v-6.454h1.218v5.432h2.618v-5.432h1.218v5.432h2.632v-5.432h1.204v5.306zm7.828-2.45c0 .177-.014.42-.042.728h-4.998c.01.616.196 1.101.56 1.456.364.345.854.518 1.47.518.86 0 1.428-.317 1.708-.952h1.218c-.112.597-.438 1.083-.98 1.456-.54.373-1.19.56-1.946.56-.989 0-1.778-.303-2.366-.91-.578-.616-.868-1.447-.868-2.492 0-1.027.29-1.848.868-2.464.58-.616 1.35-.924 2.31-.924.915 0 1.652.28 2.212.84.57.56.854 1.288.854 2.184zm-5.04-.21h3.836c0-.57-.168-1.017-.504-1.344-.326-.327-.784-.49-1.372-.49-.578 0-1.045.168-1.4.504-.345.336-.532.78-.56 1.33zm11.165-3.598c-.439.355-1.008.532-1.708.532s-1.274-.177-1.722-.532c-.438-.364-.676-.854-.714-1.47h1.036c.028.355.168.625.42.812.261.187.588.28.98.28.401 0 .728-.093.98-.28.262-.187.406-.457.434-.812h1.036c-.047.616-.294 1.106-.742 1.47zm-.014 2.898l-3.318 3.99V49h-1.218v-6.454h1.218v4.564l3.318-4.018v-.546h1.218V49h-1.218v-4.508zm-88.826 12l-3.318 3.99V61H1.05v-6.454h1.218v4.564l3.318-4.018v-.546h1.218V61H5.586v-4.508zm9.695 4.676c-1.027 0-1.844-.322-2.45-.966-.607-.653-.91-1.465-.91-2.436 0-.97.303-1.778.91-2.422.606-.644 1.423-.966 2.45-.966 1.017 0 1.829.327 2.436.98.616.644.924 1.447.924 2.408 0 .97-.308 1.783-.924 2.436-.607.644-1.419.966-2.436.966zm-1.582-1.736c.392.43.919.644 1.582.644.662 0 1.185-.215 1.568-.644.382-.439.574-.994.574-1.666 0-.663-.192-1.209-.574-1.638-.383-.439-.906-.658-1.568-.658-.663 0-1.19.22-1.582.658-.383.43-.574.98-.574 1.652 0 .663.191 1.213.574 1.652zm11.858.42h.644v2.828h-1.218V61h-4.466v1.68h-1.274v-2.828h.644c.401-.224.602-.775.602-1.652v-3.654h5.068v5.306zm-4.326.126h3.108v-4.41h-2.632v2.576c0 .737-.159 1.349-.476 1.834zm12.137-2.576c0 .177-.014.42-.042.728h-4.998c.01.616.196 1.101.56 1.456.364.345.854.518 1.47.518.858 0 1.428-.317 1.708-.952h1.218c-.112.597-.439 1.083-.98 1.456-.542.373-1.19.56-1.946.56-.99 0-1.778-.303-2.366-.91-.579-.616-.868-1.447-.868-2.492 0-1.027.29-1.848.868-2.464.578-.616 1.348-.924 2.31-.924.915 0 1.652.28 2.212.84.57.56.854 1.288.854 2.184zm-5.04-.21h3.836c0-.57-.168-1.017-.504-1.344-.327-.327-.784-.49-1.372-.49-.579 0-1.046.168-1.4.504-.346.336-.532.78-.56 1.33zM43.73 61h-1.526l-2.744-3.038V61h-1.218v-3.038L35.499 61h-1.526l3.052-3.346h-.084c-.215 0-.402-.047-.56-.14-.15-.103-.318-.299-.504-.588l-.588-.854c-.14-.187-.266-.313-.378-.378a.675.675 0 00-.406-.112h-.28v-1.106h.518c.317 0 .57.06.756.182.196.121.401.34.616.658l1.05 1.47c.252.373.532.56.84.56h.238v-2.8h1.218v2.8h.238c.308 0 .588-.187.84-.56l1.05-1.47c.214-.317.415-.537.602-.658.196-.121.452-.182.77-.182h.518v1.106h-.28a.74.74 0 00-.42.112c-.103.065-.224.191-.364.378l-.588.854c-.187.29-.36.485-.518.588-.15.093-.332.14-.546.14h-.084L43.73 61zm7.091-1.148h.645v2.828h-1.218V61h-4.467v1.68H44.51v-2.828h.644c.4-.224.602-.775.602-1.652v-3.654h5.067v5.306zm-4.326.126h3.108v-4.41h-2.632v2.576c0 .737-.158 1.349-.476 1.834zm6.616-5.432h1.218V56.8h1.68c.682 0 1.228.2 1.639.602.41.401.615.9.615 1.498 0 .579-.219 1.073-.658 1.484-.429.41-.965.616-1.61.616h-2.884v-6.454zM59.16 61v-6.454h1.219V61H59.16zm-4.83-3.234v2.254h1.526c.355 0 .635-.103.84-.308.206-.215.309-.485.309-.812 0-.336-.103-.607-.309-.812-.195-.215-.466-.322-.811-.322H54.33z" fill="#27262B"/><defs><linearGradient id="paint0_linear" x1="0" y1="19.204" x2="94.519" y2="16.164" gradientUnits="userSpaceOnUse"><stop stop-color="#FCAF45"/><stop offset=".198" stop-color="#F77737"/><stop offset=".396" stop-color="#FD1D1D"/><stop offset=".594" stop-color="#C13584"/><stop offset=".797" stop-color="#833AB4"/><stop offset="1" stop-color="#405DE6"/></linearGradient></defs></svg>
